**kern	**kern	**dynam
*part1	*part1	*part1
*staff2	*staff1	*
*I"Piano	*	*
*clefF4	*clefG2	*
*k[b-]	*k[b-]	*
=1	=1	=1
(1GGG) 1GG	(1e 1b- 1cc#X	.
=	=	=
(1FFF#X) 1FF#X	1d) 1a 1dd	.
=	=	=
*	*^	*
1FFFn) 1FFn	(2dd	1d 1a	.
.	2a)	.	.
*	*v	*v	*
=	=	=
(1EE	(1d 1g#X	.
=	=	=
1AAA) 1AA	1A) 1e 1gn	.
=	=	=
[1DD	([1A 1f#X	.
=	=	=
1DD]	1A]) 1fn	.
=	=	=
(1GGG 1GG	(1G 1e-X	.
=	=	=
1AAA) 1AA	1En) 1c#X	.
=	=	=
1DD 1D	1F 1A 1d	.
=	=	=
*	*^	*
!	!	!	!LO:DY:a
1DD 1D	(2.f	1G 1B- 1c#X	>
.	4e)	.	]
*	*v	*v	*
=	=	=
1DD; 1AA 1D	1F; 1A 1d	.
==	==	==
*-	*-	*-
!!!system-decoration: {(s1,s2)}
